X: 1
T: I'se The Bye
M: 6/8
L: 1/8
R: jig
K: Dmaj
|:D2F A2A|BcB A2F|D2F AFD|E3 EFE|
D2F A2A|BcB A2F|Bcd e2c|d3 d3:|
|:f2f f2f|e2c A3|f2f fef|g3 a3|
f2f f2f|e2c A3|Bcd e2c|d3 d3:|
